@S0 = { kick.flac }

A @S0 t150
A o6c16.r32c16.r8r32c16.r8r32c16.r8r32c16.r8
A r32
A c16.r32c16.r32c16.r8r32c16.r8r32c16.r8
A r32
A c16.r32c16.r32c16.r8r32c16.r8r32c16.r8
A r32
A c16.r32c16.r32c16.r32c16.r8r32c16.r8r32
A c16.r32c16.r8r32c16.r8r32c16.r8r32c16.r8
A r32
A c16.r32c16.r32c16.r8r32c16.r8r32c16.r8
A r32
A c16.r32c16.r32c16.r8r32c16.r4r32
A c16.r32c16.r32c16.r32c16.r8r32c16.r32c16.r8r32
A c16.r32c16.r8r32c16.r8r32c16.r8r32c16.r8
A r32
A c16.r32c16.r32c16.r8r32c16.r8r32c16.r8
A r32
A c16.r32c16.r32c16.r8r32c16.r8r32c16.r8
A r32
A c16.r32c16.r32c16.r32c16.r8r32c16.r8r32
A c16.r32c16.r8r32c16.r8r32c16.r8r32c16.r8
A r32
A c16.r32c16.r32c16.r8r32c16.r8r32c16.r8
A r32
A c16.r32c16.r32c16.r8r32c16.r4r32
A c16.r32c16.r32c16.r32c16.r8r32c16.r32c16.r8r32
A c16.r32c16.r32c16.r32c16.r8r32c16.r8r32c16.r4
A r32
A c16.r32c16.r8r32c16.r8r32c16.r32
A c16.r32c16.r32c16.r8r32c16.r8r32c16.r8r32
A c16.r8r32c16.r32c16.r4.r32c16.r32
A c16.r32c16.r32c16.r8r32c16.r8r32c16.r4
A r32
A c16.r32c16.r8r32c16.r8r32c16.r32c16.r32
A c16.r32c16.r32c16.r4r32c16.r32c16.r32c16.r8
A r32
A c16.r2r32

B t150 y48 @BTYPE4 @BF12 @BV16
B o4c16.r32c16.r8r32c16.r32c16.r8r32c8r8
B c16.r32c8r8c16r16c4>b2
B r2r8<c4
B r8c16.r32c16.r32>b16.r8r32a4
B <c16.r32c16.r8r32c16.r32c16.r8r32c8r8
B c16.r32c8r8c16.r32c16.r32c16.r32d2
B r2c16.r8r32
B c16.r32c16.r32c16.r32c16.r8r32d16.r32>a4
B <c16.r32c16.r8r32c16.r32c16.r8r32c8r8
B c16.r32c8r8c16r16c4>b2
B r2r8<c4
B r8c16.r32c16.r32>b16.r8r32a4
B <c16.r32c16.r8r32c16.r32c16.r8r32c8r8
B c16.r32c8r8c16.r32c16.r32c16.r32d2
B r2c16.r8r32
B c16.r32c16.r32c16.r32c16.r8r32>b16.r32a4
B <c8..r32c16.r32c16..r8r48>a16.r16..r24<c16.r4
B r32
B c16.r32c16.r8r32>a16.r8r32<c8..
B r32c16.r32c16..r8r48>a16.r16..r24<c16.r8r32
B c16.r8r32d16.r32>b4...r32<c8..
B r32c16.r32c16..r8r48>a16.r16..r24<c16.r4
B r32
B c16.r32c16.r8r32>a16.r8r32a24r12a24r12
B a24r12a24r12<d4r8c16.r32c16.r32>b16.r8
B r32
B a2r8

C t150 @TYPE3 v96
C o6c8r8c8r2r8
C c8r8c8r8c8r8d24e24>b1w24
C <c4.
C >a12r24a12r24b4a4
C <c8r8c8r2r8
C c8r8c8r8c8r8d24e24r24>b2..
C r8<c2
C >b4.a4
C <c8r8c8r2r8
C c8r8c8r8c8r8d24e24>b1w24
C <c4.
C >a12r24a12r24b4a4
C <c8r8c8r8c8r8c8r8
C c8r8c8r8c8r8d1w8
C c2
C >b4.a4
C <c8..r32c16.r32c16.r8r32>a16.r8r32<c16.r4
C r32
C c16.r32c16.r8r32>a16.r8r32<c8..
C r32c16.r32c16.r8r32>a16.r8r32<c16.r8r32
C c16.r8r32d16.r32>b4...r24<c8..w48
C c16.r32c16.r8r32>a16.r8r32<c16.r4
C r32
C c16.r32c16.r8r32>a16.r8r32a24r12a24r12
C a24r12a24r12<d8..r8r32c16.r32c16.r32>b16.r8
C r32
C a4...r8r32
