@S0 = { kick.flac }
@S1 = { snare.flac }
@PO0 = { 0 0 0 0 -32 }

A @S0 t110 v224
A g16r8.g16r8.g16r8.g16r8.
A g16r8.g16r8.g16r8.g16r8.
A g16r8.g16r8.g16r8.g16r8.
A g16r8.g16r8.g16r8.g16r8.
A g16r8.g16r8.g16r8.g16r8.
A g16r8.g16r8.g16r8.g16r8.
A g16r8.g16r8.g16r8.g16r8.
A g16r8.g16r8.g16r8.g16r8.
A g16r8.g16r8.g16r8.g16r8.
A g16r8.g16r8.g16r8.g16r8.
A g16r8.g16r8.g16r8.g16r8.
A g16r8.g16r8.g16r8.g16r8.
A g16r8.g16r8.g16r8.g16r8.
A g16g16g16r16g16r8.g16r8.g16r8.
A g16r8.g16r8.g16r8.g16r8.
A g16g16g16r16g16r8.g16r8.g16r8.
A g16r8.g16r8.g16r8.g16r8.
A g16g16g16r16g16r8.g16r8.g16r8.
A g16r8.g16r8.g16r8.g16r8.
A g16g16g16r16g16r8.g16r8.g16r8.

B @S1 t110 v224
B g16r8.g16r8.g16r16g16g16g16r8.
B g16r16g16g16g16r16g16r16g16r16g16r16g16r16g16r16
B g16r8.g16r8.g16r16g16g16g16r8.
B g16r16g16g16g16r16g16r16g16r4..
B g16r8.g16r8.g16r16g16g16g16r8.
B g16r16g16g16g16r16g16r16g16r16g16r16g16r16g16r16
B g16r8.g16r8.g16r16g16g16g16r8.
B g16r16g16g16g16r16g16r16g16r4..
B g16r8.g16r8.g16r16g16g16g16r8.
B g16r16g16g16g16r16g16r16g16r16g16r16g16r16g16r16
B g16r8.g16r8.g16r16g16g16g16r8.
B g16r16g16g16g16r16g16r16g16r4..
B g16r16g16r8g16g16r4r16g16r16g16r16
B g16g16g16r16g16r16g16r16g16r8.g16r8.
B g16r16g16r8g16g16r4r16g16r16g16r16
B g16g16g16r16g16r16g16r16g16r8.g16r8.
B g16r16g16r8g16g16r4r16g16r16g16r16
B g16g16g16r16g16r16g16r16g16r8.g16r8.
B g16r16g16r8g16g16r4r16g16r16g16r16
B g16g16g16r16g16r16g16r16g16r8.g16r8.

C t110 y128 @PO0 @TYPE2 @CP1 o3
C g16r8.<c4>g16r16g16g16<c4
C >g16r16g16g16g16r16g16r16g16r16g16r16f16r16f16r16
C g16r8.<c4>g16r16g16g16<c4
C >g16r16g16g16<c16r16c16r16c8r4.
C >g16r8.<c4>g16r16g16g16<c4
C >g16r16g16g16g16r16g16r16g16r16g16r16f16r16f16r16
C g16r8.<c4>g16r16g16g16<c4
C >g16r16g16g16<c16r16c16r16c8r4.
C >g16r8.<c4>g16r16g16g16<c4
C >g16r16g16g16g16r16g16r16g16r16g16r16f16r16f16r16
C g16r8.<c4>g16r16g16g16<c4
C >g16r16g16g16<c16r16c16r16c8r4.
C c8r1...
C c8r1...
C c8r1...
C c8r1...
C @PO0

D t110 @TYPE3 v180 o4
D c1w1
D >a+1w1
D <c1w1
D >a+1w1
D <c1w1
D >a+1w1
D <c1w1
D c1w1
D c1w1
D c1w1
