@S0 = { kick.flac }
@S1 = { clap.flac }
@S2 = { hat.flac }

A t110 @S0
A o5c16r8.c16c16r16c16r16c16r16c16c16r16c16r4
A c16r16c16c16r16c16r16c16r16c16r8.
A c16r8.c16c16r16c16r16c16r16c16c16r16c16r4
A c16r16c16c16r16c16r16c16r16c16r8.
A c16r8.c16c16r16c16r16c16r16c16c16r16c16r4
A c16r16c16c16r16c16r16c16r16c16r8.
A c16r8.c16c16r16c16r16c16r16c16c16r16c16r4
A c16r16c16c16r16c16r16c16r16c16r8.
A c16r8.c16c16r16c16r16c16r16c16c16r16c16r4
A c16r16c16c16r16c16r16c16r16c16r8.
A c16r8.c16c16r16c16r16c16r16c16c16r16c16r4
A c16r16c16c16r16c16r16

B t110 @S1
B o6c8r1...
B c8r1...
B c8r1...
B c8r1...
B c8c8r1
B r1
B c8c8r1
B r8

C t110 @TYPE2
C o4c8r8c8r16e16r16d+16c8r8c16r16
C c16r16c16r16c8r8e16d+16c8a+4
C c8r8c8r16e16r16d+16c8r8c16r16
C c16r16c16r16c8r8a+4c+4
C c8r8c8r16e16r16d+16c8r8c16r16
C c16r16c16r16c8r8e16d+16c8a+4
C c8r8c8r16e16r16d+16c8r8c16r16
C c16r16c16r16c8r8a+4c+4
C >b4r8.<a16r16a16r16f+4r4
C >b16<g8.>b16<g16>b16<g16a16r8f+4
C r8a16r16a16r16f+4r4
C >b16<g8>b16<g16>b16<g16>b16<c+8

D t110 @S2
D o5c16r16c16r16c16r16c16r1.
D r16
D c16r16c16r16c16r16c16r1.
D r16
D c16r16c16r16c16r16c16r1.
D r16
D c16r16c16r16c16r16c16r1....
D c16c16c16r1
D r1
D r2...
D c16c16
