@S0 = { kick.flac }
@VAS0 = { 32 0 }
@D0 = { 128 32 }

A t120 @S0
A r4o3c8r8c8r8c8r4.
A c8r8c8r8c8r2
A c8c8c8r8c8
A c8c8r4c8r8c8r4.
A c8r8c8r8c8r8
A c8r8c8r8c8r8c8r4.
A c8r4.c8r4.
A c8c8c8r8c8r4.
A c8r4c8r4
A c8r4.c8r8c8r8
A c8r8c8r4c8r4
A c8r4.c8r8c8r8
A c8r8c8r2..
A c8r8c8r8c8r8
A c8r8c8r4.c8r4
A c8c8r8c8r8c8r8 @VAS1 @PO0

B t120 @TYPE5 @CV1 @VAS0
B o9d16r16d16d16d16r8.d16r8.d16r8.
B d16r16d16d16d16r8.d16r8.d16r8.
B d16r16d16d16d16r16d16r16d16d16d16r16d16r16d16r16
B d16d16d16r16d16r8.d16r8.d16r8.
B d16r16d16d16d16d16d16r2r16
B d16r16d16d16d16r2r8.
B d16r16d16d16d16r2r8.
B d16r16d16d16d16r8.d16r8.d16r8.
B d16r16d16d16d16d16d16r2r16
B d16r16d16d16d16r2r8.
B d16r16d16d16d16r2r8.
B d16r16d16d16d16r8.d16r8.d16r8.
B d16r16d16d16d16r8.d16r8.d16r8.
B d16r16d16d16d16r8.d16r8.d16r8.
B d16r16d16d16d16r16d16r16d16d16d16r16d16r16d16r16
B d16d16d16r16d16r8.d16r8.d16r8.
B @VAS0

C t120 @TYPE0 @BF11 @BTYPE0 @BV5 @CD1 v128
C o4d8c16r16e4>b8r8<b4
C d8c16r16e4>b8r8b4
C <d8c16r16d16r16e16r16e16r16e16r16d16r16e16r16
C e16r16e16r16g16r16e16r16d8r8>b4
C <d8c16r16e16r16e32r32e32r32e32r4...
C d8c16r16e16r16e32r32e32r32e32r4...
C d8c16r16e16r16e32r32e32r32e32r16.e16r16e16r16e32r32e32r32
C e32r16.e16r16g16r16e16r16d8r8>b4
C <d8c16r16e4r8d4r8
C @BF5
C >e1
C @BF11
C <d8c16r16d4r8>b4r8
C @BF0 @D0
C <b1
C @D0 @BF11
C d8c16r16e16r16e32r32e32r32e32r4...
C d8c16r16e16r16e32r32e32r32e32r4...
C d8c16r16e16r16e32r32e32r32e32r16.e16r16e16r16e8
C r8e4r8d8r8e4
